**kern
*clefG2
*k[]
*M2/2
=1-
8b
2.r
8a
=2
2b#
(2a
=3
16b 16g 16e
2a)
16a
4b
16b
16b 16g 16e
=4
2r
16cc
8b
8cc
16dd 16b# 16g
8cc
=5
16cc
(2cc
16cc)
(4b
16cc)
16r
=6
1b
=7
4cc
16cc
2b 2g
8a# 8f
16b
=8
1a-
=9
4g
4f
2e 2c
=10
2d
16c
4B
16c
8B
=11
*-